X: 38253
T: St Giles' Cathedral
R: barndance
M: 4/4
K: Dmajor
AGFE D2 EF|G2 B2 A2 Bc|d2 cB A2 d2|e2 B2 c2 A2|
fgfe d2 cB|AG F2 B2 c2|d2 D2 BAGF|E4 D4:|
f2 ed c2 de|dcBA g3 a|f2 d2 Bcdf|edcB A3 z|
g2 fe cdeg|f2 ed A2 ag|f2 ed c3 d|d6 z2:|

